svg/database_marker.svg

<svg xmlns="http://www.w3.org/2000/svg" viewBox="0 0 24 24"><path d="M18.5 12c-1.9 0-3.5 1.6-3.5 3.5 0 2.6 3.5 6.5 3.5 6.5s3.5-3.9 3.5-6.5c0-1.9-1.6-3.5-3.5-3.5m0 4.8c-.7 0-1.2-.6-1.2-1.2 0-.7.6-1.2 1.2-1.2s1.2.6 1.2 1.2c.1.6-.5 1.2-1.2 1.2M4 12V9c0 2.21 3.58 4 8 4 .57 0 1.13-.03 1.67-.09-.42.78-.67 1.66-.67 2.59 0 .15 0 .31.03.46-.34.04-.68.04-1.03.04-4.42 0-8-1.79-8-4m0-5c0-2.21 3.58-4 8-4s8 1.79 8 4-3.58 4-8 4-8-1.79-8-4m11 13.71c-.93.19-1.94.29-3 .29-4.42 0-8-1.79-8-4v-3c0 2.21 3.58 4 8 4 .5 0 1.03-.03 1.5-.07.4.98.94 1.94 1.5 2.78"/></svg>

<?xml version="1.0" encoding="UTF-8"?><!DOCTYPE svg PUBLIC "-//W3C//DTD SVG 1.1//EN" "http://www.w3.org/Graphics/SVG/1.1/DTD/svg11.dtd"><svg xmlns="http://www.w3.org/2000/svg" xmlns:xlink="http://www.w3.org/1999/xlink" version="1.1" id="mdi-database-marker" width="24" height="24" viewBox="0 0 24 24"><path d="M18.5 12C16.6 12 15 13.6 15 15.5C15 18.1 18.5 22 18.5 22S22 18.1 22 15.5C22 13.6 20.4 12 18.5 12M18.5 16.8C17.8 16.8 17.3 16.2 17.3 15.6C17.3 14.9 17.9 14.4 18.5 14.4S19.7 15 19.7 15.6C19.8 16.2 19.2 16.8 18.5 16.8M4 12V9C4 11.21 7.58 13 12 13C12.57 13 13.13 12.97 13.67 12.91C13.25 13.69 13 14.57 13 15.5C13 15.65 13 15.81 13.03 15.96C12.69 16 12.35 16 12 16C7.58 16 4 14.21 4 12M4 7C4 4.79 7.58 3 12 3S20 4.79 20 7 16.42 11 12 11 4 9.21 4 7M15 20.71C14.07 20.9 13.06 21 12 21C7.58 21 4 19.21 4 17V14C4 16.21 7.58 18 12 18C12.5 18 13.03 17.97 13.5 17.93C13.9 18.91 14.44 19.87 15 20.71Z" /></svg>
